client/public/img/game/weapons/m37.svg

<?xml version="1.0" encoding="UTF-8" standalone="no"?>
<svg
   width="110"
   height="110"
   viewBox="0 0 110 110"
   fill="none"
   version="1.1"
   id="svg49"
   sodipodi:docname="m37.svg"
   inkscape:version="1.1.2 (0a00cf5339, 2022-02-04)"
   xmlns:inkscape="http://www.inkscape.org/namespaces/inkscape"
   xmlns:sodipodi="http://sodipodi.sourceforge.net/DTD/sodipodi-0.dtd"
   xmlns="http://www.w3.org/2000/svg"
   xmlns:svg="http://www.w3.org/2000/svg">
  <sodipodi:namedview
     id="namedview51"
     pagecolor="#505050"
     bordercolor="#ffffff"
     borderopacity="1"
     inkscape:pageshadow="0"
     inkscape:pageopacity="0"
     inkscape:pagecheckerboard="1"
     showgrid="false"
     inkscape:zoom="7.9181818"
     inkscape:cx="55.442021"
     inkscape:cy="54.936854"
     inkscape:window-width="2560"
     inkscape:window-height="1372"
     inkscape:window-x="0"
     inkscape:window-y="0"
     inkscape:window-maximized="1"
     inkscape:current-layer="svg49" />
  <g
     clip-path="url(#clip0_619_1200)"
     id="g42"
     transform="matrix(1.0033962,0,0,1.0033962,-0.45981309,2.009607)">
    <rect
       x="17.185499"
       y="84.072304"
       width="0.622949"
       height="3.1147399"
       rx="0.311474"
       transform="rotate(-30,17.1855,84.0723)"
       fill="#4e4d55"
       stroke="#2e2e33"
       stroke-width="0.506781"
       stroke-miterlimit="3.99393"
       id="rect2" />
    <path
       d="m 105.701,11.8202 2.434,4.2165 0.057,0.0994 -0.863,0.4984 c 0,0 -0.707,-0.4908 -1.362,-0.6159 -0.656,-0.1252 -1.222,-0.1221 -1.411,-0.0131 l -1.969,1.1369 c 0,0 -0.215,0.1246 -0.145,0.3715 0.106,0.3704 -0.056,0.4639 -0.299,0.604 -0.242,0.1402 -0.404,0.2337 -0.672,-0.0433 -0.178,-0.1847 -0.394,-0.0601 -0.394,-0.0601 l -1.1062,0.6385 c -0.3507,0.2025 -0.5954,0.7754 -0.5403,0.9953 l 1.0105,3.121 c 0.092,0.3894 -0.012,0.7264 -0.212,0.878 l 0.514,0.8901 -1.511,0.8722 -4.2672,-7.391 z"
       fill="#65636e"
       id="path4" />
    <path
       d="m 106.666,13.4926 -0.965,-1.6724 -10.7362,6.1984 0.9656,1.6724 3.3016,5.7186 1.511,-0.8722 -0.514,-0.8901 c 0.2,-0.1516 0.304,-0.4886 0.212,-0.878 l -1.0105,-3.121 c -0.0551,-0.2199 0.1896,-0.7928 0.5403,-0.9953 l 1.1062,-0.6385 c 0,0 0.216,-0.1246 0.394,0.0601 0.268,0.277 0.43,0.1835 0.672,0.0433 0.243,-0.1401 0.405,-0.2336 0.299,-0.604 -0.07,-0.2469 0.145,-0.3715 0.145,-0.3715 l 1.969,-1.1369 c 0.189,-0.109 0.755,-0.1121 1.411,0.0131 0.655,0.1251 1.362,0.6159 1.362,0.6159 l 0.863,-0.4984 z"
       stroke="#313036"
       stroke-width="1.01356"
       stroke-miterlimit="3.99393"
       id="path6" />
    <rect
       x="105.826"
       y="12.0352"
       width="1.49448"
       height="2.4907999"
       transform="rotate(-30,105.826,12.0352)"
       fill="#4f4e56"
       stroke="#313036"
       stroke-width="1.01356"
       stroke-miterlimit="3.99393"
       id="rect8" />
    <path
       d="m 107.414,14.7861 0.965,1.6718 1.079,-0.6227 c 0.119,-0.0688 0.16,-0.2211 0.091,-0.3403 l -0.716,-1.2403 c -0.069,-0.1191 -0.221,-0.16 -0.34,-0.0912 z"
       fill="#5c5a63"
       stroke="#313036"
       stroke-width="1.01356"
       stroke-miterlimit="3.99393"
       id="path10" />
    <path
       d="M 51.9629,43.207 95.1221,18.2891 96.4614,20.6089 80.1418,30.031 53.8317,46.444 Z"
       fill="#5c5a63"
       stroke="#313036"
       stroke-width="1.01356"
       stroke-miterlimit="3.99393"
       id="path12" />
    <path
       d="M 24.18,64.8576 C 23.061,65.4735 1.14503,81.8973 1.14503,81.8973 0.958155,82.0433 0.944954,82.3068 1.00822,82.4079 l 7.47509,12.0128 c 0.07787,0.1348 0.3985,0.1295 0.50223,-0.0023 L 26.9628,73.7889 c 0.223,-0.2366 0.9628,-0.6997 1.4027,-0.8098 l 4.9856,-1.3319 c -0.6494,-2.6822 -0.5617,-4.7377 0.3178,-6.7652 0.7493,-1.7274 2.4225,-3.3768 4.7462,-5.5816 l -4.7707,-5.0862 c -1.6075,1.762 -2.3827,2.8502 -3.3356,4.875 -1.0159,2.1584 -1.7836,3.7632 -3.0245,4.4796 -0.7013,0.4049 -1.7669,0.5526 -3.1043,1.2888 z"
       fill="#714225"
       stroke="#4e2e18"
       stroke-width="1.01356"
       stroke-miterlimit="3.99393"
       id="path14" />
    <path
       d="M 9.13547,94.2444 1.15983,81.8849 c -0.186877,0.146 -0.216548,0.4219 -0.15328,0.5229 l 7.47509,12.0128 c 0.07786,0.1349 0.3985,0.1296 0.50223,-0.0022 z"
       fill="#504e56"
       stroke="#2f2e33"
       stroke-width="1.01356"
       stroke-miterlimit="3.99393"
       id="path16" />
    <path
       d="M 38.4158,59.2985 33.645,54.2123 c 1.2189,-1.3151 2.9088,-2.6864 3.2595,-2.8889 L 51.4977,42.898 c 0.1192,-0.0688 0.2716,-0.0279 0.3404,0.0913 l 3.5819,6.2041 c 0.0688,0.1192 0.028,0.2716 -0.0912,0.3404 l -1.6185,0.9344 -0.1401,-0.2428 c -0.1376,-0.2383 -0.4424,-0.32 -0.6808,-0.1824 l -6.5278,3.7689 c -0.2384,0.1376 -0.32,0.4424 -0.1824,0.6807 l 0.1401,0.2428 z"
       fill="#6a6873"
       id="path18" />
    <path
       fill-rule="evenodd"
       clip-rule="evenodd"
       d="m 37.533,60.1426 c 0.2828,-0.2724 0.5774,-0.5531 0.8833,-0.8433 l 6.4684,-3.7345 c -0.8383,0.9297 -1.1375,2.0039 -0.8799,2.4501 l 0.1246,0.2158 c 0.4049,0.7013 0.2745,1.7837 -0.2069,2.1335 -0.575,0.4179 -1.4324,0.9485 -2.077,1.1992 -1.1454,0.4455 -2.121,0.0017 -2.3857,-0.4568 L 39.2262,60.7019 C 39.0237,60.3513 38.1011,60.0182 37.533,60.1426 Z m 6.0755,-1.755 c 0.3893,0.6744 0.1313,1.7225 -1.0172,2.3496 -0.0435,0.0238 -0.0868,0.0476 -0.1298,0.0713 -0.4506,0.2479 -0.8738,0.4808 -1.274,0.4874 -0.6413,0.0106 -1.095,-0.1231 -1.3471,-0.5889 -0.267,-0.4933 -0.2148,-0.964 0.013,-1.4102 0.2279,-0.4463 0.6317,-0.8683 1.3196,-1.2654 0.6058,-0.3498 1.0766,-0.4291 1.4432,-0.3657 0.4795,0.0829 0.7744,0.3445 0.9923,0.7219 z"
       fill="#504f57"
       stroke="#313036"
       stroke-width="0.506781"
       stroke-miterlimit="3.99393"
       id="path20" />
    <path
       d="m 39.7075,59.6696 c 0.0331,-0.1261 0.0824,-0.2504 0.1449,-0.3729 0.1993,-0.3902 0.5331,-0.7619 1.0737,-1.1146 -0.5714,0.7235 -0.5935,1.2914 -0.4217,1.7453 0.134,0.3542 0.2461,0.6131 0.6955,0.8932 0.1685,0.1049 0.0044,0.3814 -0.1338,0.3289 -0.477,-0.1811 -0.7598,-0.3232 -0.9839,-0.5828 -0.1934,-0.2241 -0.2902,-0.5058 -0.3747,-0.8971 z"
       fill="#3f3e44"
       stroke="#313036"
       stroke-width="0.506781"
       stroke-miterlimit="3.99393"
       id="path22" />
    <rect
       x="53.955101"
       y="46.659199"
       width="34.013"
       height="2.6786799"
       transform="rotate(-30,53.9551,46.6592)"
       fill="#4c4b53"
       stroke="#313036"
       stroke-width="1.01356"
       stroke-miterlimit="3.99393"
       id="rect24" />
    <path
       d="m 97.1923,16.5173 0.5607,0.9711 c 0.1869,0.3236 0.2233,0.6982 -0.478,1.1032 L 68.2504,35.3489 67.375,36.5736 64.6776,38.131 63.4473,36 Z"
       fill="#65636e"
       stroke="#313036"
       stroke-width="0.506781"
       stroke-miterlimit="3.99393"
       id="path26" />
    <rect
       x="65.541"
       y="38.316399"
       width="18.5639"
       height="5.2950702"
       transform="rotate(-30,65.541,38.3164)"
       fill="#714225"
       id="rect28" />
    <path
       d="M 68.6584,42.7073 83.8696,33.9523 81.131,29.209 65.9434,38.0048 Z"
       stroke="#4d2d19"
       stroke-width="0.506781"
       stroke-miterlimit="3.99393"
       id="path30" />
    <path
       d="M 82.2868,29.0739 C 82.0705,28.998 81.8387,28.9845 81.6161,29.0345 l 2.6476,4.5856 c 0.1545,-0.1678 0.2587,-0.3752 0.3011,-0.6006 0.0637,-0.3089 -2e-4,-0.6224 -0.1688,-0.9144 l -1.4016,-2.4277 c -0.1686,-0.2921 -0.4082,-0.5041 -0.7076,-0.6035 z"
       fill="#65636e"
       stroke="#313036"
       stroke-width="0.506781"
       stroke-miterlimit="3.99393"
       id="path32" />
    <path
       d="m 65.538,38.3167 2.6475,4.5856 c -0.4438,0.1335 -0.8187,0.0771 -1.0211,-0.2736 l -1.9,-3.2909 c -0.2025,-0.3507 -0.0639,-0.7035 0.2736,-1.0211 z"
       fill="#65636e"
       stroke="#313036"
       stroke-width="0.506781"
       stroke-miterlimit="3.99393"
       id="path34" />
    <path
       d="m 83.9105,27.2781 -1.2948,0.7475 0.6853,1.1869 -0.1079,0.0623 1.7442,3.0211 3.5606,-2.0557 -0.5606,-0.9711 0.8632,-0.4984 -0.8099,-1.4026 c 0,0 -0.1868,-0.3237 -0.0044,-1.0045 0.1824,-0.6808 0.7986,-1.1085 0.7986,-1.1085 l -0.0934,-0.1618 -2.3738,1.3704 0.4361,0.7553 -2.158,1.2459 z"
       fill="#56555e"
       stroke="#2f2e33"
       stroke-width="0.506781"
       stroke-miterlimit="3.99393"
       id="path36" />
    <path
       d="m 33.6451,54.2123 4.7707,5.0862 c -0.3059,0.2903 -0.6005,0.5709 -0.8833,0.8433 0.5681,-0.1244 1.4907,0.2087 1.6932,0.5594 l 0.2336,0.4046 c 0.2647,0.4586 1.2403,0.9024 2.3857,0.4568 0.6446,-0.2507 1.502,-0.7812 2.077,-1.1991 0.4814,-0.3499 0.6118,-1.4322 0.2069,-2.1336 l -0.1246,-0.2158 c -0.2576,-0.4462 0.0417,-1.5204 0.8799,-2.4501 l 1.4351,-0.8286 -0.1401,-0.2428 c -0.1376,-0.2383 -0.056,-0.5431 0.1824,-0.6807 l 6.5278,-3.7689 c 0.2384,-0.1376 0.5432,-0.0559 0.6808,0.1824 l 0.1402,0.2428 1.6184,-0.9344 c 0.1192,-0.0688 0.16,-0.2212 0.0912,-0.3404 l -3.5819,-6.2041 c -0.0688,-0.1192 -0.2212,-0.1601 -0.3404,-0.0912 l -14.5932,8.4253 c -0.3507,0.2025 -2.0406,1.5738 -3.2594,2.8889 z"
       stroke="#313036"
       stroke-width="1.01356"
       stroke-miterlimit="3.99393"
       id="path38" />
    <rect
       x="98.285202"
       y="22.898399"
       width="0.622949"
       height="4.3917899"
       rx="0.311474"
       transform="rotate(-30,98.2852,22.8984)"
       fill="#4e4d55"
       stroke="#313036"
       stroke-width="0.506781"
       stroke-miterlimit="3.99393"
       id="rect40" />
  </g>
  <defs
     id="defs47">
    <clipPath
       id="clip0_619_1200">
      <rect
         width="110"
         height="110"
         fill="#ffffff"
         transform="translate(0.0859375)"
         id="rect44"
         x="0"
         y="0" />
    </clipPath>
  </defs>
</svg>

<svg width="111" height="110" viewBox="0 0 111 110" fill="none" xmlns="http://www.w3.org/2000/svg">
<g clip-path="url(#clip0_619_1200)">
<rect x="17.1855" y="84.0723" width="0.622949" height="3.11474" rx="0.311474" transform="rotate(-30 17.1855 84.0723)" fill="#4E4D55" stroke="#2E2E33" stroke-width="0.506781" stroke-miterlimit="3.99393"/>
<path d="M105.701 11.8202L108.135 16.0367L108.192 16.1361L107.329 16.6345C107.329 16.6345 106.622 16.1437 105.967 16.0186C105.311 15.8934 104.745 15.8965 104.556 16.0055L102.587 17.1424C102.587 17.1424 102.372 17.267 102.442 17.5139C102.548 17.8843 102.386 17.9778 102.143 18.1179C101.901 18.2581 101.739 18.3516 101.471 18.0746C101.293 17.8899 101.077 18.0145 101.077 18.0145L99.9708 18.653C99.6201 18.8555 99.3754 19.4284 99.4305 19.6483L100.441 22.7693C100.533 23.1587 100.429 23.4957 100.229 23.6473L100.743 24.5374L99.232 25.4096L94.9648 18.0186L105.701 11.8202Z" fill="#65636E"/>
<path d="M106.666 13.4926L105.701 11.8202L94.9648 18.0186L95.9304 19.691L99.232 25.4096L100.743 24.5374L100.229 23.6473C100.429 23.4957 100.533 23.1587 100.441 22.7693L99.4305 19.6483C99.3754 19.4284 99.6201 18.8555 99.9708 18.653L101.077 18.0145C101.077 18.0145 101.293 17.8899 101.471 18.0746C101.739 18.3516 101.901 18.2581 102.143 18.1179C102.386 17.9778 102.548 17.8843 102.442 17.5139C102.372 17.267 102.587 17.1424 102.587 17.1424L104.556 16.0055C104.745 15.8965 105.311 15.8934 105.967 16.0186C106.622 16.1437 107.329 16.6345 107.329 16.6345L108.192 16.1361L106.666 13.4926Z" stroke="#313036" stroke-width="1.01356" stroke-miterlimit="3.99393"/>
<rect x="105.826" y="12.0352" width="1.49448" height="2.4908" transform="rotate(-30 105.826 12.0352)" fill="#4F4E56" stroke="#313036" stroke-width="1.01356" stroke-miterlimit="3.99393"/>
<path d="M107.414 14.7861L108.379 16.4579L109.458 15.8352C109.577 15.7664 109.618 15.6141 109.549 15.4949L108.833 14.2546C108.764 14.1355 108.612 14.0946 108.493 14.1634L107.414 14.7861Z" fill="#5C5A63" stroke="#313036" stroke-width="1.01356" stroke-miterlimit="3.99393"/>
<path d="M51.9629 43.207L95.1221 18.2891L96.4614 20.6089L80.1418 30.031L53.8317 46.444L51.9629 43.207Z" fill="#5C5A63" stroke="#313036" stroke-width="1.01356" stroke-miterlimit="3.99393"/>
<path d="M24.18 64.8576C23.061 65.4735 1.14503 81.8973 1.14503 81.8973C0.958155 82.0433 0.944954 82.3068 1.00822 82.4079L8.48331 94.4207C8.56118 94.5555 8.88181 94.5502 8.98554 94.4184L26.9628 73.7889C27.1858 73.5523 27.9256 73.0892 28.3655 72.9791L33.3511 71.6472C32.7017 68.965 32.7894 66.9095 33.6689 64.882C34.4182 63.1546 36.0914 61.5052 38.4151 59.3004L33.6444 54.2142C32.0369 55.9762 31.2617 57.0644 30.3088 59.0892C29.2929 61.2476 28.5252 62.8524 27.2843 63.5688C26.583 63.9737 25.5174 64.1214 24.18 64.8576Z" fill="#714225" stroke="#4E2E18" stroke-width="1.01356" stroke-miterlimit="3.99393"/>
<path d="M9.13547 94.2444L1.15983 81.8849C0.972953 82.0309 0.943282 82.3068 1.00655 82.4078L8.48164 94.4206C8.5595 94.5555 8.88014 94.5502 8.98387 94.4184L9.13547 94.2444Z" fill="#504E56" stroke="#2F2E33" stroke-width="1.01356" stroke-miterlimit="3.99393"/>
<path d="M38.4158 59.2985L33.645 54.2123C34.8639 52.8972 36.5538 51.5259 36.9045 51.3234L51.4977 42.898C51.6169 42.8292 51.7693 42.8701 51.8381 42.9893L55.42 49.1934C55.4888 49.3126 55.448 49.465 55.3288 49.5338L53.7103 50.4682L53.5702 50.2254C53.4326 49.9871 53.1278 49.9054 52.8894 50.043L46.3616 53.8119C46.1232 53.9495 46.0416 54.2543 46.1792 54.4926L46.3193 54.7354L38.4158 59.2985Z" fill="#6A6873"/>
<path fill-rule="evenodd" clip-rule="evenodd" d="M37.533 60.1426C37.8158 59.8702 38.1104 59.5895 38.4163 59.2993L44.8847 55.5648C44.0464 56.4945 43.7472 57.5687 44.0048 58.0149L44.1294 58.2307C44.5343 58.932 44.4039 60.0144 43.9225 60.3642C43.3475 60.7821 42.4901 61.3127 41.8455 61.5634C40.7001 62.0089 39.7245 61.5651 39.4598 61.1066L39.2262 60.7019C39.0237 60.3513 38.1011 60.0182 37.533 60.1426ZM43.6085 58.3876C43.9978 59.062 43.7398 60.1101 42.5913 60.7372C42.5478 60.761 42.5045 60.7848 42.4615 60.8085C42.0109 61.0564 41.5877 61.2893 41.1875 61.2959C40.5462 61.3065 40.0925 61.1728 39.8404 60.707C39.5734 60.2137 39.6256 59.743 39.8534 59.2968C40.0813 58.8505 40.4851 58.4285 41.173 58.0314C41.7788 57.6816 42.2496 57.6023 42.6162 57.6657C43.0957 57.7486 43.3906 58.0102 43.6085 58.3876Z" fill="#504F57" stroke="#313036" stroke-width="0.506781" stroke-miterlimit="3.99393"/>
<path d="M39.7075 59.6696C39.7406 59.5435 39.7899 59.4192 39.8524 59.2967C40.0517 58.9065 40.3855 58.5348 40.9261 58.1821C40.3547 58.9056 40.3326 59.4735 40.5044 59.9274C40.6384 60.2816 40.7505 60.5405 41.1999 60.8206C41.3684 60.9255 41.2043 61.202 41.0661 61.1495C40.5891 60.9684 40.3063 60.8263 40.0822 60.5667C39.8888 60.3426 39.792 60.0609 39.7075 59.6696Z" fill="#3F3E44" stroke="#313036" stroke-width="0.506781" stroke-miterlimit="3.99393"/>
<rect x="53.9551" y="46.6592" width="34.013" height="2.67868" transform="rotate(-30 53.9551 46.6592)" fill="#4C4B53" stroke="#313036" stroke-width="1.01356" stroke-miterlimit="3.99393"/>
<path d="M97.1923 16.5173L97.753 17.4884C97.9399 17.812 97.9763 18.1866 97.275 18.5916L68.2504 35.3489L67.375 36.5736L64.6776 38.131L63.4473 36L97.1923 16.5173Z" fill="#65636E" stroke="#313036" stroke-width="0.506781" stroke-miterlimit="3.99393"/>
<rect x="65.541" y="38.3164" width="18.5639" height="5.29507" transform="rotate(-30 65.541 38.3164)" fill="#714225"/>
<path d="M68.6584 42.7073L83.8696 33.9523L81.131 29.209L65.9434 38.0048L68.6584 42.7073Z" stroke="#4D2D19" stroke-width="0.506781" stroke-miterlimit="3.99393"/>
<path d="M82.2868 29.0739C82.0705 28.998 81.8387 28.9845 81.6161 29.0345L84.2637 33.6201C84.4182 33.4523 84.5224 33.2449 84.5648 33.0195C84.6285 32.7106 84.5646 32.3971 84.396 32.1051L82.9944 29.6774C82.8258 29.3853 82.5862 29.1733 82.2868 29.0739Z" fill="#65636E" stroke="#313036" stroke-width="0.506781" stroke-miterlimit="3.99393"/>
<path d="M65.538 38.3167L68.1855 42.9023C67.7417 43.0358 67.3668 42.9794 67.1644 42.6287L65.2644 39.3378C65.0619 38.9871 65.2005 38.6343 65.538 38.3167Z" fill="#65636E" stroke="#313036" stroke-width="0.506781" stroke-miterlimit="3.99393"/>
<path d="M83.9105 27.2781L82.6157 28.0256L83.301 29.2125L83.1931 29.2748L84.9373 32.2959L88.4979 30.2402L87.9373 29.2691L88.8005 28.7707L87.9906 27.3681C87.9906 27.3681 87.8038 27.0444 87.9862 26.3636C88.1686 25.6828 88.7848 25.2551 88.7848 25.2551L88.6914 25.0933L86.3176 26.4637L86.7537 27.219L84.5957 28.4649L83.9105 27.2781Z" fill="#56555E" stroke="#2F2E33" stroke-width="0.506781" stroke-miterlimit="3.99393"/>
<path d="M33.6451 54.2123L38.4158 59.2985C38.1099 59.5888 37.8153 59.8694 37.5325 60.1418C38.1006 60.0174 39.0232 60.3505 39.2257 60.7012L39.4593 61.1058C39.724 61.5644 40.6996 62.0082 41.845 61.5626C42.4896 61.3119 43.347 60.7814 43.922 60.3635C44.4034 60.0136 44.5338 58.9313 44.1289 58.2299L44.0043 58.0141C43.7467 57.5679 44.046 56.4937 44.8842 55.564L46.3193 54.7354L46.1792 54.4926C46.0416 54.2543 46.1232 53.9495 46.3616 53.8119L52.8894 50.043C53.1278 49.9054 53.4326 49.9871 53.5702 50.2254L53.7104 50.4682L55.3288 49.5338C55.448 49.465 55.4888 49.3126 55.42 49.1934L51.8381 42.9893C51.7693 42.8701 51.6169 42.8292 51.4977 42.8981L36.9045 51.3234C36.5538 51.5259 34.8639 52.8972 33.6451 54.2123Z" stroke="#313036" stroke-width="1.01356" stroke-miterlimit="3.99393"/>
<rect x="98.2852" y="22.8984" width="0.622949" height="4.39179" rx="0.311474" transform="rotate(-30 98.2852 22.8984)" fill="#4E4D55" stroke="#313036" stroke-width="0.506781" stroke-miterlimit="3.99393"/>
</g>
<defs>
<clipPath id="clip0_619_1200">
<rect width="110" height="110" fill="white" transform="translate(0.0859375)"/>
</clipPath>
</defs>
</svg>
